modules/zondicons/icons/ticket.svg

<?xml version="1.0" encoding="UTF-8" standalone="no"?>
<svg width="20px" height="20px" viewBox="0 0 20 20" version="1.1" xmlns="http://www.w3.org/2000/svg" xmlns:xlink="http://www.w3.org/1999/xlink">
    <!-- Generator: Sketch 3.7.2 (28276) - http://www.bohemiancoding.com/sketch -->
    <title>ticket</title>
    <desc>Created with Sketch.</desc>
    <defs></defs>
    <g id="Page-1" stroke="none" stroke-width="1" fill="none" fill-rule="evenodd">
        <g id="ticket" fill="#000000">
            <path d="M20,12 L20,17 L0,17 L0,12 C1.1045695,12 2,11.1045695 2,10 C2,8.8954305 1.1045695,8 0,8 L0,3 L20,3 L20,8 C18.8954305,8 18,8.8954305 18,10 C18,11.1045695 18.8954305,12 20,12 Z M3,5 L17,5 L17,15 L3,15 L3,5 Z M10,11.6 L7.64885899,13.236068 L8.47830955,10.4944272 L6.19577393,8.76393202 L9.05954358,8.70557279 L10,6 L10.9404564,8.70557279 L13.8042261,8.76393202 L11.5216904,10.4944272 L12.351141,13.236068 L10,11.6 Z" id="Combined-Shape"></path>
        </g>
    </g>
</svg>

<svg width="20" height="20" viewBox="0 0 20 20" xmlns="http://www.w3.org/2000/svg"><path d="M20 12v5H0v-5a2 2 0 1 0 0-4V3h20v5a2 2 0 1 0 0 4zM3 5h14v10H3V5zm7 6.6l-2.351 1.636.83-2.742-2.283-1.73 2.864-.058L10 6l.94 2.706 2.864.058-2.282 1.73.83 2.742L10 11.6z" fill="#000" fill-rule="evenodd"/></svg>
